dist/img/span.svg

<svg width="189" height="15" viewBox="0 0 189 15" fill="none" xmlns="http://www.w3.org/2000/svg">
<g id="&#208;&#191;&#209;&#128;&#208;&#184;&#209;&#142;&#209;&#130; &#208;&#180;&#208;&#187;&#209;&#143; &#208;&#182;&#208;&#184;&#208;&#178;&#208;&#190;&#209;&#130;&#208;&#189;&#209;&#139;&#209;&#133;">
<path d="M8.55999 11H7.29999V1.77998H1.43999V11H0.179993V0.719984H8.55999V11Z" fill="#282626"/>
<path d="M12.1422 0.719984V2.69998C12.8888 1.17998 14.1155 0.419983 15.8222 0.419983C17.2222 0.419983 18.3422 0.919983 19.1822 1.91998C20.0355 2.91998 20.4622 4.24665 20.4622 5.89998C20.4622 7.52665 20.0422 8.83998 19.2022 9.83998C18.3622 10.8267 17.2488 11.32 15.8622 11.32C14.1288 11.32 12.9155 10.58 12.2222 9.09998V14.84H11.0022V0.719984H12.1422ZM18.2222 2.67998C17.5955 1.86665 16.7422 1.45998 15.6622 1.45998C14.5822 1.45998 13.7288 1.85332 13.1022 2.63998C12.4888 3.42665 12.1822 4.50665 12.1822 5.87998C12.1822 7.22665 12.4955 8.29332 13.1222 9.07998C13.7622 9.86665 14.6222 10.26 15.7022 10.26C16.7555 10.26 17.5955 9.86665 18.2222 9.07998C18.8622 8.27998 19.1822 7.21998 19.1822 5.89998C19.1822 4.55332 18.8622 3.47998 18.2222 2.67998Z" fill="#282626"/>
<path d="M30.7866 11H29.5266V2.19998L23.9666 11H22.4066V0.719984H23.6666V9.51998L29.2266 0.719984H30.7866V11Z" fill="#282626"/>
<path d="M41.6287 0.419983C43.1087 0.419983 44.2821 0.913316 45.1487 1.89998C46.0287 2.88665 46.4687 4.21998 46.4687 5.89998C46.4687 7.56665 46.0354 8.88665 45.1687 9.85998C44.3021 10.82 43.1221 11.3 41.6287 11.3C40.1754 11.3 39.0087 10.84 38.1287 9.91998C37.2621 8.98665 36.7954 7.73332 36.7287 6.15998H34.4087V11H33.1487V0.719984H34.4087V5.09998H36.7687C36.9154 3.65998 37.4221 2.51998 38.2887 1.67998C39.1554 0.839983 40.2687 0.419983 41.6287 0.419983ZM44.2287 2.67998C43.5754 1.87998 42.7021 1.47998 41.6087 1.47998C40.5154 1.47998 39.6421 1.87998 38.9887 2.67998C38.3354 3.46665 38.0087 4.52665 38.0087 5.85998C38.0087 7.21998 38.3287 8.29332 38.9687 9.07998C39.6221 9.86665 40.5154 10.26 41.6487 10.26C42.7421 10.26 43.6087 9.86665 44.2487 9.07998C44.8887 8.29332 45.2087 7.22665 45.2087 5.87998C45.2087 4.53332 44.8821 3.46665 44.2287 2.67998Z" fill="#282626"/>
<path d="M55.7125 1.77998H51.8925V11H50.6325V1.77998H46.8125V0.719984H55.7125V1.77998Z" fill="#282626"/>
<path d="M72.1856 14.28H70.9256V11H62.6456V14.28H61.3856V9.93998H62.6056C63.5523 8.19332 64.0256 5.55998 64.0256 2.03998V0.719984H70.7456V9.93998H72.1856V14.28ZM69.4856 9.93998V1.77998H65.2456V2.45998C65.2456 5.68665 64.799 8.17998 63.9056 9.93998H69.4856Z" fill="#282626"/>
<path d="M81.9789 11H80.7189V1.77998H76.5189L76.3389 6.93998C76.2856 8.43332 76.0389 9.51998 75.5989 10.2C75.1589 10.88 74.5122 11.22 73.6589 11.22C73.2856 11.22 72.9189 11.1467 72.5589 11V9.97998C72.7989 10.1 73.1722 10.16 73.6789 10.16C74.5456 10.16 75.0189 9.06665 75.0989 6.87998L75.2989 0.719984H81.9789V11Z" fill="#282626"/>
<path d="M92.2611 11H91.0011V6.67998H88.4411L84.8211 11H83.1811L87.0011 6.63998C86.0678 6.57332 85.3211 6.28665 84.7611 5.77998C84.2144 5.25998 83.9411 4.55998 83.9411 3.67998C83.9411 2.77332 84.2211 2.05332 84.7811 1.51998C85.3544 0.98665 86.1144 0.719984 87.0611 0.719984H92.2611V11ZM91.0011 1.77998H87.3611C86.6811 1.77998 86.1478 1.95332 85.7611 2.29998C85.3878 2.63332 85.2011 3.09998 85.2011 3.69998C85.2011 4.29998 85.3878 4.77332 85.7611 5.11998C86.1478 5.45332 86.6811 5.61998 87.3611 5.61998H91.0011V1.77998Z" fill="#282626"/>
<path d="M104.299 5.83998L100.499 11H98.9586L103.419 4.99998L99.3986 0.719984H101.099L105.839 5.95998V0.719984H107.099V5.93998L111.839 0.719984H113.539L109.519 4.99998L113.979 11H112.439L108.639 5.83998L107.099 7.43998V11H105.839V7.43998L104.299 5.83998Z" fill="#282626"/>
<path d="M123.443 11H122.183V2.19998L116.623 11H115.063V0.719984H116.323V9.51998L121.883 0.719984H123.443V11Z" fill="#282626"/>
<path d="M134.325 8.11998C134.325 9.05332 134.005 9.76665 133.365 10.26C132.725 10.7533 131.812 11 130.625 11H125.805V0.719984H130.625C131.678 0.719984 132.492 0.933317 133.065 1.35998C133.638 1.77332 133.925 2.37332 133.925 3.15998C133.925 4.39998 133.332 5.18665 132.145 5.51998V5.55998C133.598 5.81332 134.325 6.66665 134.325 8.11998ZM132.665 3.47998C132.665 2.34665 131.938 1.77998 130.485 1.77998H127.065V5.13998H130.485C131.192 5.13998 131.732 4.99332 132.105 4.69998C132.478 4.40665 132.665 3.99998 132.665 3.47998ZM133.065 7.97998C133.065 6.73998 132.205 6.11998 130.485 6.11998H127.065V9.93998H130.485C132.205 9.93998 133.065 9.28665 133.065 7.97998Z" fill="#282626"/>
<path d="M140.576 0.419983C142.056 0.419983 143.229 0.913316 144.096 1.89998C144.976 2.88665 145.416 4.21998 145.416 5.89998C145.416 7.56665 144.983 8.88665 144.116 9.85998C143.249 10.82 142.069 11.3 140.576 11.3C139.083 11.3 137.889 10.8133 136.996 9.83998C136.116 8.85332 135.676 7.52665 135.676 5.85998C135.676 4.20665 136.116 2.88665 136.996 1.89998C137.889 0.913316 139.083 0.419983 140.576 0.419983ZM143.176 2.67998C142.523 1.87998 141.649 1.47998 140.556 1.47998C139.463 1.47998 138.589 1.87998 137.936 2.67998C137.283 3.46665 136.956 4.52665 136.956 5.85998C136.956 7.21998 137.276 8.29332 137.916 9.07998C138.569 9.86665 139.463 10.26 140.596 10.26C141.689 10.26 142.556 9.86665 143.196 9.07998C143.836 8.29332 144.156 7.22665 144.156 5.87998C144.156 4.53332 143.829 3.46665 143.176 2.67998Z" fill="#282626"/>
<path d="M154.658 1.77998H150.838V11H149.578V1.77998H145.758V0.719984H154.658V1.77998Z" fill="#282626"/>
<path d="M164.205 11H162.945V6.15998H157.085V11H155.825V0.719984H157.085V5.09998H162.945V0.719984H164.205V11Z" fill="#282626"/>
<path d="M166.527 0.719984H167.787V4.75998H171.127C172.127 4.75998 172.92 5.03998 173.507 5.59998C174.093 6.15998 174.387 6.91998 174.387 7.87998C174.387 8.85332 174.093 9.61998 173.507 10.18C172.92 10.7267 172.127 11 171.127 11H166.527V0.719984ZM173.127 7.87998C173.127 7.22665 172.92 6.71998 172.507 6.35998C172.107 5.99998 171.547 5.81998 170.827 5.81998H167.787V9.93998H170.827C171.56 9.93998 172.127 9.76665 172.527 9.41998C172.927 9.05998 173.127 8.54665 173.127 7.87998ZM176.327 0.719984H177.587V11H176.327V0.719984Z" fill="#282626"/>
<path d="M187.927 0.719984L184.287 5.51998L188.347 11H186.747L184.007 7.23998C183.967 7.18665 183.913 7.11998 183.847 7.03998C183.793 6.94665 183.733 6.85332 183.667 6.75998C183.613 6.66665 183.553 6.56665 183.487 6.45998C183.34 6.69998 183.167 6.95332 182.967 7.21998L180.247 11H178.747L182.727 5.59998L179.047 0.719984H180.647L182.867 3.71998C182.947 3.81332 183.053 3.97332 183.187 4.19998C183.333 4.41332 183.44 4.57332 183.507 4.67998C183.893 4.11998 184.113 3.79998 184.167 3.71998L186.447 0.719984H187.927Z" fill="#282626"/>
</g>
</svg>

<svg width="189" height="15" fill="none" xmlns="http://www.w3.org/2000/svg"><g fill="#282626"><path d="M8.56 11H7.3V1.78H1.44V11H.18V.72h8.38V11ZM12.142.72V2.7c.747-1.52 1.974-2.28 3.68-2.28 1.4 0 2.52.5 3.36 1.5.854 1 1.28 2.327 1.28 3.98 0 1.627-.42 2.94-1.26 3.94-.84.987-1.953 1.48-3.34 1.48-1.733 0-2.947-.74-3.64-2.22v5.74h-1.22V.72h1.14Zm6.08 1.96c-.627-.813-1.48-1.22-2.56-1.22s-1.933.393-2.56 1.18c-.613.787-.92 1.867-.92 3.24 0 1.347.313 2.413.94 3.2.64.787 1.5 1.18 2.58 1.18 1.054 0 1.894-.393 2.52-1.18.64-.8.96-1.86.96-3.18 0-1.347-.32-2.42-.96-3.22ZM30.787 11h-1.26V2.2l-5.56 8.8h-1.56V.72h1.26v8.8l5.56-8.8h1.56V11ZM41.629.42c1.48 0 2.653.493 3.52 1.48.88.987 1.32 2.32 1.32 4 0 1.667-.434 2.987-1.3 3.96-.867.96-2.047 1.44-3.54 1.44-1.454 0-2.62-.46-3.5-1.38-.867-.933-1.334-2.187-1.4-3.76h-2.32V11h-1.26V.72h1.26V5.1h2.36c.146-1.44.653-2.58 1.52-3.42.866-.84 1.98-1.26 3.34-1.26Zm2.6 2.26c-.654-.8-1.527-1.2-2.62-1.2-1.094 0-1.967.4-2.62 1.2-.654.787-.98 1.847-.98 3.18 0 1.36.32 2.433.96 3.22.653.787 1.546 1.18 2.68 1.18 1.093 0 1.96-.393 2.6-1.18.64-.787.96-1.853.96-3.2 0-1.347-.327-2.413-.98-3.2ZM55.712 1.78h-3.82V11h-1.26V1.78h-3.82V.72h8.9v1.06ZM72.186 14.28h-1.26V11h-8.28v3.28h-1.26V9.94h1.22c.946-1.747 1.42-4.38 1.42-7.9V.72h6.72v9.22h1.44v4.34Zm-2.7-4.34V1.78h-4.24v.68c0 3.227-.447 5.72-1.34 7.48h5.58ZM81.979 11h-1.26V1.78h-4.2l-.18 5.16c-.053 1.493-.3 2.58-.74 3.26-.44.68-1.087 1.02-1.94 1.02-.373 0-.74-.073-1.1-.22V9.98c.24.12.613.18 1.12.18.867 0 1.34-1.093 1.42-3.28l.2-6.16h6.68V11ZM92.261 11h-1.26V6.68h-2.56L84.821 11h-1.64l3.82-4.36c-.933-.067-1.68-.353-2.24-.86-.547-.52-.82-1.22-.82-2.1 0-.907.28-1.627.84-2.16.573-.533 1.333-.8 2.28-.8h5.2V11Zm-1.26-9.22h-3.64c-.68 0-1.213.173-1.6.52-.373.333-.56.8-.56 1.4 0 .6.187 1.073.56 1.42.387.333.92.5 1.6.5h3.64V1.78ZM104.299 5.84l-3.8 5.16h-1.54l4.46-6-4.02-4.28h1.7l4.74 5.24V.72h1.26v5.22l4.74-5.22h1.7L109.519 5l4.46 6h-1.54l-3.8-5.16-1.54 1.6V11h-1.26V7.44l-1.54-1.6ZM123.443 11h-1.26V2.2l-5.56 8.8h-1.56V.72h1.26v8.8l5.56-8.8h1.56V11ZM134.325 8.12c0 .933-.32 1.647-.96 2.14-.64.493-1.553.74-2.74.74h-4.82V.72h4.82c1.053 0 1.867.213 2.44.64.573.413.86 1.013.86 1.8 0 1.24-.593 2.027-1.78 2.36v.04c1.453.253 2.18 1.107 2.18 2.56Zm-1.66-4.64c0-1.133-.727-1.7-2.18-1.7h-3.42v3.36h3.42c.707 0 1.247-.147 1.62-.44.373-.293.56-.7.56-1.22Zm.4 4.5c0-1.24-.86-1.86-2.58-1.86h-3.42v3.82h3.42c1.72 0 2.58-.653 2.58-1.96ZM140.576.42c1.48 0 2.653.493 3.52 1.48.88.987 1.32 2.32 1.32 4 0 1.667-.433 2.987-1.3 3.96-.867.96-2.047 1.44-3.54 1.44-1.493 0-2.687-.487-3.58-1.46-.88-.987-1.32-2.313-1.32-3.98 0-1.653.44-2.973 1.32-3.96.893-.987 2.087-1.48 3.58-1.48Zm2.6 2.26c-.653-.8-1.527-1.2-2.62-1.2-1.093 0-1.967.4-2.62 1.2-.653.787-.98 1.847-.98 3.18 0 1.36.32 2.433.96 3.22.653.787 1.547 1.18 2.68 1.18 1.093 0 1.96-.393 2.6-1.18.64-.787.96-1.853.96-3.2 0-1.347-.327-2.413-.98-3.2ZM154.658 1.78h-3.82V11h-1.26V1.78h-3.82V.72h8.9v1.06ZM164.205 11h-1.26V6.16h-5.86V11h-1.26V.72h1.26V5.1h5.86V.72h1.26V11ZM166.527.72h1.26v4.04h3.34c1 0 1.793.28 2.38.84.586.56.88 1.32.88 2.28 0 .973-.294 1.74-.88 2.3-.587.547-1.38.82-2.38.82h-4.6V.72Zm6.6 7.16c0-.653-.207-1.16-.62-1.52-.4-.36-.96-.54-1.68-.54h-3.04v4.12h3.04c.733 0 1.3-.173 1.7-.52.4-.36.6-.873.6-1.54Zm3.2-7.16h1.26V11h-1.26V.72ZM187.927.72l-3.64 4.8 4.06 5.48h-1.6l-2.74-3.76a5.934 5.934 0 0 0-.16-.2 3.662 3.662 0 0 0-.18-.28 11.89 11.89 0 0 0-.18-.3c-.147.24-.32.493-.52.76l-2.72 3.78h-1.5l3.98-5.4-3.68-4.88h1.6l2.22 3a3.7 3.7 0 0 1 .32.48c.146.213.253.373.32.48l.66-.96 2.28-3h1.48Z"/></g></svg>
